!!!!SEGMENT: pl-cz--iii-744--001-005_zebrowski-marcin-jozef--missa-ex-d-benedictus.krn
!!!cenid: 17xx:2347
!!!COM: Żebrowski, Marcin Józef
!!!COM-rismID: pe30020322
!!!CDT: 1702-1770/06/29
!!!CNT: Polish
!!!OPR: Missa ex D
!!!OTL: Benedictus
!!!OMV: 005
!!!PDT: 1782
!!!AGN: Sacred; Mass
!!!YEC: Copyright 2022 Narodowy Instytut Fryderyka Chopina (https://polishscores.org)
!!!YEM: License CC-BY-4.0 (https://creativecommons.org/licenses/by/4.0)
!!!SMS-siglum: PL-CZ
!!!SMS-shelfmark: III-744
!!!SMS-shelfwork: 001-005 M
!!!SMS-variant:
!!!SMS-altvar:
!!!NIFC-rismSourceID: 300033496
!!!NIFC-rismChildID: 300033496
!!!NIFC-islandoraID: pl-cz:25261
!!!URL-pdf-islandora: https://repozytorium.nifc.pl/islandora/object/pl-cz%3A25261/datastream/PDF/view
!!!URL-scan: https://polish.musicsources.pl/pl/lokalizacje/galeria/rekopisy/1474 @EN{Scan on Polish Music Sources Website} @PL{Skany w portalu Dziedzictwo Muzyki Polskiej w otwartym dostępie}
!!!IIIF:
!!!ONB-nifc: UWAGA: części Mszy: 1. Kyrie, 2. Gloria, 3. Patrem, 4. Sanctus, 5. Benedictus, 6. Agnus Dei
!!!AIN: 1 bass 2 clrno 1 organ 1 soprn 2 violn
!!!key: G
**kern	**fba	**dynam	**kern	**kern	**dynam	**kern	**kern	**text	**kern	**kern
*	*	*	*group3	*group3	*	*group2	*group2	*	*group1	*group1
*part7	*	*	*part6	*part5	*	*part4	*part3	*	*part2	*part1
*staff7	*	*	*staff6	*staff5	*	*staff4	*staff3	*	*staff2	*staff1
*I"Organo	*	*	*I"Violino Secundo.	*I"Violino Primo.	*	*I"Baſso.	*I"Canto.	*	*I"Clarino Secundo. ex D ad libitum.	*I"Clarino Primo. ex D: ad libitum.
*I'org	*	*	*I'vl 2	*I'vl 1	*	*I'B	*I'S	*	*I'clno 2 in D	*I'clno 1 in D
*Iorgan	*	*	*Ivioln	*Ivioln	*	*Ibass	*Isoprn	*	*Iclrno	*Iclrno
*ICklav	*	*	*ICstr	*ICstr	*	*ICvox	*ICvox	*	*ICbras	*ICbras
*IGcont	*	*	*	*	*	*	*	*	*	*
*clefF4	*	*	*clefG2	*clefG2	*	*clefF4	*clefC1	*	*clefG2	*clefG2
*	*	*	*	*	*	*	*	*	*ITrd-1c-2	*ITrd-1c-2
*k[f#]	*	*	*k[f#]	*k[f#]	*	*k[f#]	*k[f#]	*	*k[f#]	*k[f#]
*G:	*	*	*G:	*G:	*	*G:	*G:	*	*G:	*G:
*M4/4	*	*	*M4/4	*M4/4	*	*M4/4	*M4/4	*	*M4/4	*M4/4
*met(c)	*	*	*met(c)	*met(c)	*	*met(c)	*met(c)	*	*met(c)	*met(c)
=1	=1	=1	=1	=1	=1	=1	=1	=1	=1	=1
!LO:TX:a:t=Lente Solo.	!	!	!LO:TX:a:t=Benedictus Tacet.	!LO:TX:a:t=Lente Solo	!	!LO:TX:a:i:t=Benedictus Tacet	!	!	!LO:TX:a:i:t=Benedictus Tacet.	!LO:TX:a:i:t=Benedictus Tacet
8G\L	.	.	1ryy	8.ggT\L	.	1ryy	00r	.	1ryy	1ryy
8A\	7	.	.	.	.	.	.	.	.	.
.	.	.	.	(32ff#\LL	.	.	.	.	.	.
.	.	.	.	32ee\JJJ)	.	.	.	.	.	.
8B\	6	.	.	8dd\L	.	.	.	.	.	.
8A\J	6	.	.	8cc\J	.	.	.	.	.	.
8G\L	.	.	.	16b\LL	.	.	.	.	.	.
.	.	.	.	16cc\J	.	.	.	.	.	.
8G\	.	.	.	8.dd\J	.	.	.	.	.	.
8F#\	6	.	.	.	.	.	.	.	.	.
.	.	.	.	16cc\LL	.	.	.	.	.	.
8D\J	.	.	.	16bt\	.	.	.	.	.	.
.	.	.	.	16a\JJ	.	.	.	.	.	.
=2	=2	=2	=2	=2	=2	=2	=2	=2	=2	=2
!LO:TX:t=P:problem=mixed beam	!	!	!	!	!	!	!	!	!	!
8GG/L	.	.	1ryy	16b\LL	.	1ryy	.	.	1ryy	1ryy
.	.	.	.	16cc\J	.	.	.	.	.	.
.	.	.	.	8qqcc/	.	.	.	.	.	.
8G\	.	.	.	8dd\J	.	.	.	.	.	.
*	*	*	*	*Xbrackettup	*	*	*	*	*	*
!	!	!	!	!LO:TUP:a:problem=klamra łukowa	!	!	!	!	!	!
!	!	!	!	!LO:N:xstem:cue	!	!	!	!	!	!
8F#\	6	.	.	24dd\	.	.	.	.	.	.
.	.	.	.	24f#\LL	.	.	.	.	.	.
.	.	.	.	24g\	.	.	.	.	.	.
8D\J	7	.	.	24a\	.	.	.	.	.	.
.	.	.	.	24g\	.	.	.	.	.	.
.	.	.	.	24f#\JJ	.	.	.	.	.	.
!LO:TX:t=P:problem=mixed beam	!	!	!	!	!	!	!	!	!	!
8G\L	.	.	.	16b/LL	.	.	.	.	.	.
.	.	.	.	16a/J	.	.	.	.	.	.
8GG/	.	.	.	8g/J	.	.	.	.	.	.
8AA/	7	.	.	8r	.	.	.	.	.	.
8BB/J	-5	.	.	8dd\	.	.	.	.	.	.
=3	=3	=3	=3	=3	=3	=3	=3	=3	=3	=3
!	!	!	!	!LO:TX:t=P:problem=mixed beam	!	!	!	!	!	!
4C/	.	.	1ryy	8ee\L|>	.	1ryy	.	.	1ryy	1ryy
.	.	.	.	(8c/	.	.	.	.	.	.
8r	.	.	.	8B/)	.	.	.	.	.	.
8BB/	6	.	.	(>8dd\J	.	.	.	.	.	.
!	!	!	!	!LO:TX:t=P:problem=mixed beam	!	!	!	!	!	!
4AA/	6\	.	.	8cc\L)	.	.	.	.	.	.
.	.	.	.	(8A/	.	.	.	.	.	.
8r	.	.	.	8G/)	.	.	.	.	.	.
8GG/	.	.	.	8b\J|>	.	.	.	.	.	.
=4	=4	=4	=4	=4	=4	=4	=4	=4	=4	=4
*	*	*	*	*^	*	*	*	*	*	*
8D\L	.	.	1ryy	16a/LL	16f#\LL	.	1ryy	.	.	1ryy	1ryy
.	.	.	.	16b/JJ	16g\JJ	.	.	.	.	.	.
8D\	.	.	.	4cc/	4a\	.	.	.	.	.	.
8D\	7	.	.	.	.	.	.	.	.	.	.
8D\J	6 4	.	.	8b/	8g\	.	.	.	.	.	.
.	.	.	.	8qqcc/	8qqa\	.	.	.	.	.	.
8r	6 4	.	.	8b/L	8g\L	.	.	.	.	.	.
8D\L	5 3	.	.	8a/J	8f#\J	.	.	.	.	.	.
.	.	.	.	.	8qqgg/	.	.	.	.	.	.
8d\	.	.	.	4ryy	8.ff#t>\L	.	.	.	.	.	.
8c\J	2	.	.	.	.	.	.	.	.	.	.
.	.	.	.	.	(32ee\LL	.	.	.	.	.	.
.	.	.	.	.	32ff#\JJJ)	.	.	.	.	.	.
*	*	*	*	*v	*v	*	*	*	*	*	*
=5	=5	=5	=5	=5	=5	=5	=5	=5	=5	=5
8B\L	6	.	1ryy	(16gg\LL	.	1ryy	0r	.	1ryy	1ryy
.	.	.	.	16b\)	.	.	.	.	.	.
8c\J	6	.	.	16a\	.	.	.	.	.	.
.	.	.	.	16cc\JJ	.	.	.	.	.	.
!	!	!	!	!LO:LB:g=original	!LO:DY:b:t=p&colon;	!	!	!	!	!
.	.	.	.	8qqg/	p	.	.	.	.	.
8r	.	.	.	8.f#t/L	.	.	.	.	.	.
!	!	!LO:DY:b:t=pia&colon;	!	!	!	!	!	!	!	!
8C/	4 2	p	.	.	.	.	.	.	.	.
.	.	.	.	(32e/LL	.	.	.	.	.	.
.	.	.	.	32f#/JJJ)	.	.	.	.	.	.
8BB/L	6	.	.	(16g/LL	.	.	.	.	.	.
.	.	.	.	16G/)	.	.	.	.	.	.
8C/J	6	.	.	16c/	.	.	.	.	.	.
.	.	.	.	16A/JJ	.	.	.	.	.	.
.	.	.	.	16qqee/LL	.	.	.	.	.	.
.	.	.	.	16qqff#/JJ	.	.	.	.	.	.
!	!	!	!	!	!LO:DY:b:t=for&colon;	!	!	!	!	!
8r	.	.	.	8.ff#t\L	f	.	.	.	.	.
!	!	!LO:DY:b:t=for&colon;	!	!	!	!	!	!	!	!
8c\	4 2	f	.	.	.	.	.	.	.	.
.	.	.	.	(32ee\LL	.	.	.	.	.	.
.	.	.	.	32ff#\JJJ)	.	.	.	.	.	.
=6	=6	=6	=6	=6	=6	=6	=6	=6	=6	=6
!LO:TX:t=P:problem=mixed beam	!	!	!	!	!	!	!	!	!	!
8B\L	6	.	1ryy	(16gg\LL	.	1ryy	.	.	1ryy	1ryy
.	.	.	.	16dd\)	.	.	.	.	.	.
8c\	6	.	.	16ee\|	.	.	.	.	.	.
.	.	.	.	16a\JJ|	.	.	.	.	.	.
8d\	4	.	.	8d/L	.	.	.	.	.	.
8D/J	3	.	.	8aT/J	.	.	.	.	.	.
4G\	.	.	.	8g/L	.	.	.	.	.	.
.	.	.	.	8d/J	.	.	.	.	.	.
4r	.	.	.	4G/	.	.	.	.	.	.
=7	=7	=7	=7	=7	=7	=7	=7	=7	=7	=7
!	!	!LO:DY:b:t=pia&colon;	!	!	!	!	!	!	!	!
8G\L	.	p	1ryy	(16b\LL	.	1ryy	8.gg\L	Be-	1ryy	1ryy
.	.	.	.	16dd\JJ)	.	.	.	.	.	.
!	!	!	!	!	!LO:DY:b:t=p&colon;	!	!	!	!	!
8A\	7	.	.	4gg\	p	.	.	.	.	.
.	.	.	.	.	.	.	32ff#\LL	.	.	.
.	.	.	.	.	.	.	32ee\JJ	.	.	.
8B\	6	.	.	.	.	.	8dd\J	.	.	.
8A\J	6	.	.	8ff#\	.	.	8cc\	-ne-	.	.
8G\L	.	.	.	8gg\L	.	.	16b\LL	-di-	.	.
.	.	.	.	.	.	.	16cc\JJ	.	.	.
8G\	.	.	.	8b\J	.	.	4dd,\	-ctus	.	.
8F#\	6	.	.	16a\LL|	.	.	.	.	.	.
.	.	.	.	(16a\	.	.	.	.	.	.
8D\J	7	.	.	16b\	.	.	8a\	qui	.	.
.	.	.	.	16cc\JJ)	.	.	.	.	.	.
!LO:LB:g=original	!	!	!	!	!	!	!	!	!	!
=8	=8	=8	=8	=8	=8	=8	=8	=8	=8	=8
!LO:TX:t=P:problem=mixed beam	!	!	!	!	!	!	!	!	!	!
8GG/L	.	.	1ryy	16b\LL	.	1ryy	(16b\LL	ve-	1ryy	1ryy
.	.	.	.	16cc\J	.	.	16cc\JJ)	.	.	.
.	.	.	.	8qqcc/	.	.	.	.	.	.
8G\	.	.	.	8dd\J	.	.	4dd,\	-nit	.	.
!	!	!	!	!LO:TUP:a:problem=klamra łukowa	!	!	!	!	!	!
!	!	!	!	!LO:N:vis=xstem:cue	!	!	!	!	!	!
8F#\	6	.	.	24dd\	.	.	.	.	.	.
.	.	.	.	24a\LL	.	.	.	.	.	.
.	.	.	.	24b\	.	.	.	.	.	.
8D\J	7	.	.	24cc\	.	.	8cc\	in	.	.
.	.	.	.	24b\	.	.	.	.	.	.
.	.	.	.	24a\JJ	.	.	.	.	.	.
8GG/L	9	.	.	16b\LL	.	.	16b\	no-	.	.
.	.	.	.	16cc\J	.	.	16a\	-mi-	.	.
8AA/	.	.	.	8ccT\J	.	.	8g\	-ne	.	.
8BB/	6	.	.	8dd\L	.	.	8r	.	.	.
8GG/J	.	.	.	8bb\J	.	.	8dd\	in	.	.
=9	=9	=9	=9	=9	=9	=9	=9	=9	=9	=9
8C/L	6	.	1ryy	4aa\	.	1ryy	8.cc\	no-	1ryy	1ryy
8C/	.	.	.	.	.	.	.	.	.	.
.	.	.	.	.	.	.	16cc\	-mi-	.	.
8C#X/	7 5	.	.	4gg\	.	.	4b\	-ne	.	.
8C#/J	.	.	.	.	.	.	.	.	.	.
8D\L	6 4	.	.	8.ggT\L	.	.	16b\	Do-	.	.
.	.	.	.	.	.	.	16a\	-mi-	.	.
8E\	.	.	.	.	.	.	8a\	-ni	.	.
.	.	.	.	(32ff#\LL	.	.	.	.	.	.
.	.	.	.	32ee\JJJ)	.	.	.	.	.	.
8F#\	6	.	.	8dd\L	.	.	4r	.	.	.
8E\J	6\	.	.	8cc#X\J|	.	.	.	.	.	.
!	!	!	!	!LO:LB:g=original	!	!	!	!	!	!
=10	=10	=10	=10	=10	=10	=10	=10	=10	=10	=10
.	.	.	.	8qqcc/	.	.	.	.	.	.
8D\L	.	.	1ryy	4dd\	.	1ryy	8r	.	1ryy	1ryy
8D\	.	.	.	.	.	.	16a\	Be-	.	.
.	.	.	.	.	.	.	16a\	-ne-	.	.
8F#\	6	.	.	4r	.	.	8a\	-di-	.	.
8D\J	.	.	.	.	.	.	16g\	-ctus	.	.
.	.	.	.	.	.	.	16a\	qui	.	.
8G\L	.	.	.	8r	.	.	4b\	ve-	.	.
8G\	.	.	.	8dd\L	.	.	.	.	.	.
8G\	.	.	.	8gg\	.	.	[4gg\	.	.	.
8G\J	.	.	.	8bb\J	.	.	.	.	.	.
!	!	!	!	!	!	!	!LO:LB:g=original	!	!	!
=11	=11	=11	=11	=11	=11	=11	=11	=11	=11	=11
.	.	.	.	8qqdd/	.	.	.	.	.	.
8E\L	6\	.	1ryy	4cc#X\	.	1ryy	(16gg\LL]	.	1ryy	1ryy
.	.	.	.	.	.	.	16ff#\	.	.	.
8E\	.	.	.	.	.	.	16ee\	.	.	.
.	.	.	.	.	.	.	16dd\JJ)	.	.	.
8E\	.	.	.	4r	.	.	16cc#X\LL	.	.	.
.	.	.	.	.	.	.	16b\	.	.	.
8E\J	.	.	.	.	.	.	16a\	.	.	.
.	.	.	.	.	.	.	16g#X\JJ	.	.	.
8C#X/L	6 5	.	.	8r	.	.	4a\	.	.	.
!	!	!	!	!LO:TX:t=P:problem=mixed beam	!	!	!	!	!	!
8C#/	.	.	.	8ee\L	.	.	.	.	.	.
.	.	.	.	.	.	.	8qqa/	.	.	.
8C#/	.	.	.	8aa\	.	.	4gg#X\	.	.	.
8C#/J	.	.	.	8a/J	.	.	.	.	.	.
=12	=12	=12	=12	=12	=12	=12	=12	=12	=12	=12
8D/L	.	.	1ryy	8r	.	1ryy	16ff#\LL	.	1ryy	1ryy
.	.	.	.	.	.	.	(16ee\	.	.	.
8D/	.	.	.	8ff#\L	.	.	16dd\)	.	.	.
.	.	.	.	.	.	.	16cc#X\JJ	.	.	.
8D/	.	.	.	8dd\	.	.	16b\LL	.	.	.
.	.	.	.	.	.	.	16a\	.	.	.
8D/J	.	.	.	8a\J	.	.	16g\	.	.	.
.	.	.	.	.	.	.	16f#\JJ	.	.	.
8BB/L	6 5	.	.	8r	.	.	4g\	.	.	.
!	!	!	!	!LO:TX:t=P:problem=mixed beam	!	!	!	!	!	!
8BB/	.	.	.	8dd\L	.	.	.	.	.	.
.	.	.	.	.	.	.	8qqg/	.	.	.
8BB/	.	.	.	8gg\	.	.	4ff#\	.	.	.
8BB/J	.	.	.	8g/J	.	.	.	.	.	.
=13	=13	=13	=13	=13	=13	=13	=13	=13	=13	=13
*	*	*	*	*^	*	*	*	*	*	*
8C#X/L	6 5	.	1ryy	8r	2ryy	.	1ryy	16ee\LL	.	1ryy	1ryy
.	.	.	.	.	.	.	.	16dd\	.	.	.
8C#/	.	.	.	(16ee'\LL	.	.	.	16cc#X\	.	.	.
.	.	.	.	16dd'\JJ	.	.	.	16b\JJ	.	.	.
8C#/	.	.	.	16cc#X'\LL	.	.	.	16a\LL	.	.	.
.	.	.	.	16b'\	.	.	.	16g\	.	.	.
8C#/J	.	.	.	16a'\	.	.	.	16f#\	.	.	.
.	.	.	.	16g'\JJ)	.	.	.	16e\JJ	.	.	.
!	!	!	!	!	!LO:N:vis=4	!	!	!	!	!	!
.	.	.	.	8qqb/	8qqg\	.	.	.	.	.	.
4D\	.	.	.	4a/	4f#\	.	.	8f#,/	-nit	.	.
.	.	.	.	.	.	.	.	8d/	qui	.	.
4r	.	.	.	4r	4ryy	.	.	8f#/	ve-	.	.
.	.	.	.	.	.	.	.	16a,\	-nit	.	.
.	.	.	.	.	.	.	.	16a\	in	.	.
*	*	*	*	*v	*v	*	*	*	*	*	*
=14	=14	=14	=14	=14	=14	=14	=14	=14	=14	=14
8D\L	.	.	1ryy	16ff#\LL	.	1ryy	8.dd\	No-	1ryy	1ryy
.	.	.	.	16gg\J	.	.	.	.	.	.
8E\	.	.	.	8ggT\J	.	.	.	.	.	.
.	.	.	.	.	.	.	16dd\	-mi-	.	.
!	!	!	!	!LO:TX:t=P:problem=mixed beam	!	!	!	!	!	!
8F#\	6	.	.	8aa\L	.	.	4dd,\	-ne	.	.
8D\J	.	.	.	8f#/J	.	.	.	.	.	.
8G\L	6 5	.	.	4G/	.	.	(24b\LL	Do-	.	.
.	.	.	.	.	.	.	24ee\	.	.	.
.	.	.	.	.	.	.	24ff#\JJ	.	.	.
8E\J	.	.	.	.	.	.	24gg\LL	.	.	.
.	.	.	.	.	.	.	24ff#\)	.	.	.
.	.	.	.	.	.	.	24ee\J	.	.	.
!LO:TX:t=P:problem=mixed beam	!	!	!	!	!	!	!	!	!	!
.	.	.	.	.	.	.	8qqdd/	.	.	.
8A\L	#	.	.	4r	.	.	8.ee\J	.	.	.
8AA/J	.	.	.	.	.	.	.	.	.	.
.	.	.	.	.	.	.	16dd\	-mi-	.	.
=15	=15	=15	=15	=15	=15	=15	=15	=15	=15	=15
!	!	!LO:DY:b:t=for&colon;	!	!	!LO:DY:b:t=for&colon;	!	!	!	!	!
8D\L	.	f	1ryy	8.ddd\L	f	1ryy	4dd\	-ni	1ryy	1ryy
8E\	7	.	.	.	.	.	.	.	.	.
.	.	.	.	32ccc#X\LL	.	.	.	.	.	.
.	.	.	.	32bb\JJJ	.	.	.	.	.	.
8F#\	6	.	.	8aa\L	.	.	4r	.	.	.
8E\J	6\	.	.	8gg\J	.	.	.	.	.	.
!	!	!	!	!LO:LB:g=original	!	!	!	!	!	!
8D\L	.	.	.	16ff#\LL	.	.	2r	.	.	.
.	.	.	.	16gg\J	.	.	.	.	.	.
8d\	.	.	.	8.aa\J	.	.	.	.	.	.
8c#X\	6	.	.	.	.	.	.	.	.	.
.	.	.	.	16gg\LL	.	.	.	.	.	.
8A\J	.	.	.	16ff#t\	.	.	.	.	.	.
.	.	.	.	16ee\JJ	.	.	.	.	.	.
!	!	!	!	!	!	!	!LO:LB:g=original	!	!	!
=16	=16	=16	=16	=16	=16	=16	=16	=16	=16	=16
!LO:TX:t=P:problem=mixed beam	!	!	!	!	!	!	!	!	!	!
8d\L	.	.	1ryy	16ff#\LL	.	1ryy	00r	.	1ryy	1ryy
.	.	.	.	16gg\J	.	.	.	.	.	.
.	.	.	.	8qqgg/	.	.	.	.	.	.
8D/	.	.	.	8aa\J	.	.	.	.	.	.
!	!	!	!	!LO:TUP:a:problem=klamra łukowa	!	!	!	!	!	!
!	!	!	!	!LO:N:vis=xstem:cue	!	!	!	!	!	!
8C#X/	6	.	.	24aa\	.	.	.	.	.	.
.	.	.	.	24ee\LL	.	.	.	.	.	.
.	.	.	.	24ff#\	.	.	.	.	.	.
8AA/J	7	.	.	24gg\	.	.	.	.	.	.
.	.	.	.	24ff#\	.	.	.	.	.	.
.	.	.	.	24ee\JJ	.	.	.	.	.	.
!LO:LB:g=original	!	!	!	!	!	!	!	!	!	!
8D\L	.	.	.	16ff#\LL	.	.	.	.	.	.
.	.	.	.	16ee\J	.	.	.	.	.	.
8D\	.	.	.	8dd\J	.	.	.	.	.	.
8E\	7	.	.	8r	.	.	.	.	.	.
8F#\J	-5	.	.	8aa\	.	.	.	.	.	.
=17	=17	=17	=17	=17	=17	=17	=17	=17	=17	=17
!	!	!	!	!LO:TX:t=P:problem=mixed beam	!	!	!	!	!	!
4G\	.	.	1ryy	8bb\L|>	.	1ryy	.	.	1ryy	1ryy
.	.	.	.	(8g/	.	.	.	.	.	.
8r	.	.	.	8f#/)	.	.	.	.	.	.
8F#\	6	.	.	(>8aa\J	.	.	.	.	.	.
!	!	!	!	!LO:TX:t=P:problem=mixed beam	!	!	!	!	!	!
4E\	6\	.	.	8gg\L)	.	.	.	.	.	.
.	.	.	.	(8e/	.	.	.	.	.	.
8r	.	.	.	8d/)	.	.	.	.	.	.
8D\	.	.	.	8ff#\J|>	.	.	.	.	.	.
=18	=18	=18	=18	=18	=18	=18	=18	=18	=18	=18
*	*	*	*	*^	*	*	*	*	*	*
8AA/L	#	.	1ryy	(16ee/LL	16cc\LL	.	1ryy	.	.	1ryy	1ryy
.	.	.	.	16ff#/JJ	16dd\JJ	.	.	.	.	.	.
8AA/	7	.	.	4gg/)	4ee\	.	.	.	.	.	.
8AA/	.	.	.	.	.	.	.	.	.	.	.
8AA/J	6 4	.	.	8ff#/	8dd\	.	.	.	.	.	.
!	!	!	!	!	!LO:N:vis=4	!	!	!	!	!	!
.	.	.	.	8qqgg/	8qqee\	.	.	.	.	.	.
8r	6 4	.	.	8ff#/L	8dd\L	.	.	.	.	.	.
!LO:TX:t=P:problem=mixed beam	!	!	!	!	!	!	!	!	!	!	!
8AA/L	5 #	.	.	8ee/J	8cc#X\J	.	.	.	.	.	.
8A\	.	.	.	4ryy	8.ccc#Xt>\L	.	.	.	.	.	.
8G\J	.	.	.	.	.	.	.	.	.	.	.
.	.	.	.	.	(32bb\LL	.	.	.	.	.	.
.	.	.	.	.	32ccc#\JJJ)	.	.	.	.	.	.
*	*	*	*	*v	*v	*	*	*	*	*	*
=19	=19	=19	=19	=19	=19	=19	=19	=19	=19	=19
8F#\L	6	.	1ryy	(16ddd\LL	.	1ryy	.	.	1ryy	1ryy
.	.	.	.	16ff#\)	.	.	.	.	.	.
8G\J	6	.	.	16ee\	.	.	.	.	.	.
.	.	.	.	16gg\JJ	.	.	.	.	.	.
!	!	!	!	!	!LO:DY:b:t=p&colon;	!	!	!	!	!
.	.	.	.	8qqdd/	p	.	.	.	.	.
!	!	!LO:DY:b:t=p&colon;	!	!	!	!	!	!	!	!
8r	.	p	.	8.cc#Xt\L	.	.	.	.	.	.
8GG/	+4r 2	.	.	.	.	.	.	.	.	.
.	.	.	.	(32b\LL	.	.	.	.	.	.
.	.	.	.	32cc#\JJJ)	.	.	.	.	.	.
!	!	!	!	!LO:TX:t=P:problem=mixed beam	!	!	!	!	!	!
8FF#/L	6	.	.	(>16dd\LL	.	.	.	.	.	.
.	.	.	.	16d/)	.	.	.	.	.	.
8GG/J	6	.	.	16g/	.	.	.	.	.	.
.	.	.	.	16e/JJ	.	.	.	.	.	.
!	!	!	!	!	!LO:DY:b:t=for&colon;	!	!	!	!	!
8r	.	.	.	8.ccc#Xt\L	f	.	.	.	.	.
!	!	!LO:DY:b:t=for&colon;	!	!	!	!	!	!	!	!
8G\	+4 2	f	.	.	.	.	.	.	.	.
.	.	.	.	(32bb\LL	.	.	.	.	.	.
.	.	.	.	32ccc#\JJJ)	.	.	.	.	.	.
!	!	!	!	!LO:LB:g=original	!	!	!	!	!	!
=20	=20	=20	=20	=20	=20	=20	=20	=20	=20	=20
!LO:TX:t=P:problem=mixed beam	!	!	!	!	!	!	!	!	!	!
8F#\L	6	.	1ryy	(16ddd\LL	.	1ryy	1r	.	1ryy	1ryy
.	.	.	.	16aa\)	.	.	.	.	.	.
8G\	6	.	.	16bb\	.	.	.	.	.	.
.	.	.	.	16ee\JJ|	.	.	.	.	.	.
8A\	4	.	.	8a\L	.	.	.	.	.	.
8AA/J	#	.	.	8eeT\J	.	.	.	.	.	.
4D\	.	.	.	8dd\L|	.	.	.	.	.	.
.	.	.	.	8a\J|	.	.	.	.	.	.
4r	.	.	.	4d/	.	.	.	.	.	.
=21	=21	=21	=21	=21	=21	=21	=21	=21	=21	=21
*	*	*	*	*^	*	*	*	*	*	*
!	!	!LO:DY:b:t=p&colon;	!	!	!	!LO:DY:b:t=p&colon;	!	!	!	!	!
8E\L	7 #	p	1ryy	2gg#Xt/	2b\	p	1ryy	8dd\	Be-	1ryy	1ryy
8E\	.	.	.	.	.	.	.	(16b\LL	-ne-	.	.
.	.	.	.	.	.	.	.	16a\JJ)	.	.	.
8E\	.	.	.	.	.	.	.	8g#X\	-di-	.	.
8E\J	.	.	.	.	.	.	.	16dd\	-ctus	.	.
.	.	.	.	.	.	.	.	16dd\	qui	.	.
!LO:TX:t=P:problem=mixed beam	!	!	!	!	!	!	!	!	!	!	!
8AA/L	4	.	.	4aa/	4a\	.	.	(16dd\LL	ve-	.	.
.	.	.	.	.	.	.	.	16b\JJ)	.	.	.
16.A\L	3	.	.	.	.	.	.	8cc\	-nit	.	.
32B\JJk	.	.	.	.	.	.	.	.	.	.	.
16.A\LL	.	.	.	4r	4ryy	.	.	8r	.	.	.
32G\K	.	.	.	.	.	.	.	.	.	.	.
16.F#\	.	.	.	.	.	.	.	8cc\	in	.	.
32E\JJk	.	.	.	.	.	.	.	.	.	.	.
=22	=22	=22	=22	=22	=22	=22	=22	=22	=22	=22	=22
8D\L	7	.	1ryy	2ff#t/	2a\	.	1ryy	8cc\	No-	1ryy	1ryy
8D\	.	.	.	.	.	.	.	16dd\	-mi-	.	.
.	.	.	.	.	.	.	.	16ee\	-ne	.	.
.	.	.	.	.	.	.	.	8qqee/	.	.	.
8D\	.	.	.	.	.	.	.	8.ddT\	Do-	.	.
8D\J	.	.	.	.	.	.	.	.	.	.	.
.	.	.	.	.	.	.	.	16cc\	-mi-	.	.
.	.	.	.	.	.	.	.	8qqcc/	.	.	.
!LO:TX:t=P:problem=mixed beam	!	!	!	!	!	!	!	!	!	!	!
8G\L	.	.	.	4gg 4b 4d 4G/	2ryy	.	.	4b\	-ni	.	.
8GG/	.	.	.	.	.	.	.	.	.	.	.
8BB/	6	.	.	8r	.	.	.	8r	.	.	.
8GG/J	.	.	.	8g/	.	.	.	8b\	qui	.	.
*	*	*	*	*v	*v	*	*	*	*	*	*
=23	=23	=23	=23	=23	=23	=23	=23	=23	=23	=23
8D\L	7	.	1ryy	16f#/LL	.	1ryy	16a\LL	ve-	1ryy	1ryy
.	.	.	.	16g/J	.	.	16b\J	.	.	.
8D\	.	.	.	8.a/J	.	.	8.cc\J	.	.	.
8D\	.	.	.	.	.	.	.	.	.	.
.	.	.	.	16a/LL	.	.	16cc\LL	.	.	.
8D\J	.	.	.	16g/	.	.	16b\	.	.	.
.	.	.	.	16f#/JJ	.	.	16a\JJ	.	.	.
8G\L	.	.	.	16g/LL	.	.	16b\LL	.	.	.
.	.	.	.	16a/J	.	.	16cc\J	.	.	.
8G\	.	.	.	8.b/J	.	.	8.dd\J	.	.	.
8G\	.	.	.	.	.	.	.	.	.	.
.	.	.	.	16b/LL	.	.	16dd\LL	.	.	.
8G\J	.	.	.	16a/	.	.	16cc\	.	.	.
.	.	.	.	16g/JJ	.	.	16b\JJ	.	.	.
=24	=24	=24	=24	=24	=24	=24	=24	=24	=24	=24
8C/L	6	.	1ryy	16a\LL	.	1ryy	16cc\LL	.	1ryy	1ryy
.	.	.	.	16b\J	.	.	16dd\J	.	.	.
8C/	.	.	.	8.cc\J	.	.	8.ee\J	.	.	.
8C/	.	.	.	.	.	.	.	.	.	.
.	.	.	.	16cc\LL	.	.	16ee\LL	.	.	.
8C/J	.	.	.	16b\	.	.	16dd\	.	.	.
.	.	.	.	16a\JJ	.	.	16cc\JJ	.	.	.
8D\L	7 1	.	.	8cc\L|	.	.	8ff#\	.	.	.
8E\J	5 1	.	.	8b\J|	.	.	8gg\	-nit	.	.
8r	.	.	.	8r	.	.	8r	.	.	.
8F#\	6 5	.	.	8a/	.	.	8cc\	in	.	.
!LO:LB:g=original	!	!	!	!LO:LB:g=original	!	!	!LO:LB:g=original	!	!	!
=25	=25	=25	=25	=25	=25	=25	=25	=25	=25	=25
!LO:TX:t=P:problem=mixed beam	!	!	!	!LO:TUP:b	!	!	!	!	!	!
8G\L	.	.	1ryy	(24g/LL	.	1ryy	24b\LL	no-	1ryy	1ryy
.	.	.	.	24f#/	.	.	24a\	.	.	.
.	.	.	.	24g/	.	.	24b\JJ	.	.	.
8C\	6	.	.	16a/)	.	.	16cc\	-mi-	.	.
.	.	.	.	16e/JJ|	.	.	16a\	-ne	.	.
.	.	.	.	8qqe/	.	.	8qqg/	.	.	.
8D\	.	.	.	4f#t/	.	.	8.aT\	Do-	.	.
8DD/J	.	.	.	.	.	.	.	.	.	.
.	.	.	.	.	.	.	16g\	-mi-	.	.
16r	.	.	.	4g/	.	.	4g\	-ni	.	.
16GG/LL	.	.	.	.	.	.	.	.	.	.
16.BB/	.	.	.	.	.	.	.	.	.	.
32D/JJk	.	.	.	.	.	.	.	.	.	.
8G\L	6	.	.	8b\L|	.	.	8r	.	.	.
8G\J	.	.	.	(8bb\J	.	.	16ee\	Be-	.	.
.	.	.	.	.	.	.	16ee\	-ne-	.	.
=26	=26	=26	=26	=26	=26	=26	=26	=26	=26	=26
!	!	!	!	!LO:TX:t=P:problem=mixed beam	!	!	!	!	!	!
8F#\L	7	.	1ryy	8aa\L)	.	1ryy	(16ee\LL	-di-	1ryy	1ryy
.	.	.	.	.	.	.	16cc#X\JJ)	.	.	.
8F#\	6	.	.	(8a/J	.	.	8dd\	-ctus	.	.
!	!	!	!	!LO:TX:t=P:problem=mixed beam	!	!	!	!	!	!
8E\	6	.	.	8g/L)	.	.	8r	.	.	.
8E\J	.	.	.	(8gg\J	.	.	8ccn\	qui	.	.
!	!	!	!	!LO:TX:t=P:problem=mixed beam	!	!	!	!	!	!
8D/L	7	.	.	8ff#\L)	.	.	(16cc\LL	ve-	.	.
.	.	.	.	.	.	.	16a#X\JJ)	.	.	.
8D/	6	.	.	(8f#/J	.	.	8b\	-nit	.	.
!	!	!	!	!LO:TX:t=P:problem=mixed beam	!	!	!	!	!	!
8C/	7	.	.	8e/L)	.	.	8r	.	.	.
8C#X/J	6	.	.	8ee\J|	.	.	8an\	in	.	.
=27	=27	=27	=27	=27	=27	=27	=27	=27	=27	=27
!	!	!	!	!LO:TUP:b:problem=klamra łukowa	!	!	!LO:TUP:b	!	!	!
4.D\	.	.	1ryy	24a/LL	.	1ryy	24f#X/LL	no-	1ryy	1ryy
.	.	.	.	24b/	.	.	24g/	.	.	.
.	.	.	.	24cc/J	.	.	24a/JJ	.	.	.
.	.	.	.	8b/J	.	.	24g\LL	.	.	.
.	.	.	.	.	.	.	24a\	.	.	.
.	.	.	.	.	.	.	24b\JJ	.	.	.
!	!	!	!	!LO:TUP:b:problem=klamra łukowa	!	!	!	!	!	!
.	.	.	.	24f#/LL	.	.	24a\LL	.	.	.
.	.	.	.	24g/	.	.	24b\	.	.	.
.	.	.	.	24a/J	.	.	24cc\JJ	.	.	.
8G\	.	.	.	8g/J	.	.	24b\LL	.	.	.
.	.	.	.	.	.	.	24cc\	.	.	.
.	.	.	.	.	.	.	24dd\JJ	.	.	.
!	!	!	!	!LO:TUP:a:problem=klamra łukowa	!	!	!	!	!	!
8r	.	.	.	24a\LL	.	.	24cc\LL	.	.	.
.	.	.	.	24b\	.	.	24dd\	.	.	.
.	.	.	.	24cc\JJ	.	.	24ee\JJ	.	.	.
.	.	.	.	8qqdd/	.	.	.	.	.	.
8F#\L	7 5	.	.	4cc\	.	.	4ee\	.	.	.
8F#\	.	.	.	.	.	.	.	.	.	.
8F#\J	.	.	.	16b/LL	.	.	16dd\LL	.	.	.
.	.	.	.	16a/JJ	.	.	16cc\JJ	.	.	.
=28	=28	=28	=28	=28	=28	=28	=28	=28	=28	=28
!LO:TX:t=P:problem=mixed beam	!	!	!	!LO:TX:t=P:problem=mixed beam	!	!	!LO:TUP:a:problem=klamra łukowa	!	!	!
8G\L	.	.	1ryy	32g/LLL	.	1ryy	24b\LL	.	1ryy	1ryy
.	.	.	.	32gg\	.	.	.	.	.	.
.	.	.	.	.	.	.	24a\	.	.	.
.	.	.	.	(32ff#\	.	.	.	.	.	.
.	.	.	.	.	.	.	24b\JJ	.	.	.
.	.	.	.	32gg\JJJ)	.	.	.	.	.	.
8C/	6	.	.	16aa\LL	.	.	16cc\	-mi-	.	.
.	.	.	.	16ee\JJ|	.	.	16a\	-ne	.	.
.	.	.	.	8qqee/	.	.	8qqg/	.	.	.
8D/	.	.	.	4ff#t\	.	.	8.a\	Do-	.	.
8DD/J	.	.	.	.	.	.	.	.	.	.
.	.	.	.	.	.	.	16g\	-mi-	.	.
!	!	!LO:DY:b:t=for&colon;	!	!	!	!	!	!	!	!
8GG/L	.	f	.	4gg\	.	.	4g\	-ni	.	.
8GG/|	.	.	.	.	.	.	.	.	.	.
8AA/|	7	.	.	8r	.	.	4r	.	.	.
8BB/J|	-5	.	.	8dd\	.	.	.	.	.	.
=29	=29	=29	=29	=29	=29	=29	=29	=29	=29	=29
!	!	!	!	!LO:TX:t=P:problem=mixed beam	!	!	!	!	!	!
4C/	.	.	1ryy	8ee\L|>	.	1ryy	00r	.	1ryy	1ryy
.	.	.	.	(8c/	.	.	.	.	.	.
8r	.	.	.	8B/)	.	.	.	.	.	.
8BB/	6	.	.	(>8dd\J	.	.	.	.	.	.
!	!	!	!	!LO:TX:t=P:problem=mixed beam	!	!	!	!	!	!
4AA/	6	.	.	8cc\L)	.	.	.	.	.	.
.	.	.	.	(8A/	.	.	.	.	.	.
8r	.	.	.	8G/)	.	.	.	.	.	.
8GG/	.	.	.	8b\J|>	.	.	.	.	.	.
!	!	!	!	!LO:LB:g=original	!	!	!	!	!	!
=30	=30	=30	=30	=30	=30	=30	=30	=30	=30	=30
*	*	*	*	*^	*	*	*	*	*	*
8D\L	.	.	1ryy	(16a/LL	16f#\LL	.	1ryy	.	.	1ryy	1ryy
.	.	.	.	16b/JJ	16g\JJ	.	.	.	.	.	.
8D\	7	.	.	4cc/)	4a\	.	.	.	.	.	.
8D\	6 4	.	.	.	.	.	.	.	.	.	.
8D\J	.	.	.	8b/|	8g\	.	.	.	.	.	.
.	.	.	.	8qqcc/	8qqa\	.	.	.	.	.	.
8r	6 4	.	.	8b/L	8g\L	.	.	.	.	.	.
8D\L	5 3	.	.	8a/J	8f#\J	.	.	.	.	.	.
.	.	.	.	.	8qqgg/	.	.	.	.	.	.
8d\	.	.	.	4ryy	8.ff#t>\L	.	.	.	.	.	.
8c\J	2	.	.	.	.	.	.	.	.	.	.
.	.	.	.	.	(32ee\LL	.	.	.	.	.	.
.	.	.	.	.	32ff#\JJJ)	.	.	.	.	.	.
*	*	*	*	*v	*v	*	*	*	*	*	*
=31	=31	=31	=31	=31	=31	=31	=31	=31	=31	=31
8B\L	6	.	1ryy	(16gg\LL	.	1ryy	.	.	1ryy	1ryy
.	.	.	.	16b\)	.	.	.	.	.	.
8c\J	6	.	.	16a\	.	.	.	.	.	.
.	.	.	.	16cc\JJ	.	.	.	.	.	.
.	.	.	.	8qqg/	.	.	.	.	.	.
!	!	!	!	!	!LO:DY:b:t=p&colon;	!	!	!	!	!
8r	.	.	.	8.f#t/L	p	.	.	.	.	.
!	!	!LO:DY:b:t=pia&colon;	!	!	!	!	!	!	!	!
8C/	2	p	.	.	.	.	.	.	.	.
.	.	.	.	32e/LL	.	.	.	.	.	.
.	.	.	.	32f#/JJJ	.	.	.	.	.	.
8BB/L	6	.	.	(16g/LL	.	.	.	.	.	.
.	.	.	.	16G/)	.	.	.	.	.	.
8C/J	6	.	.	16c/	.	.	.	.	.	.
.	.	.	.	16A/JJ	.	.	.	.	.	.
.	.	.	.	16qqee/LL	.	.	.	.	.	.
.	.	.	.	16qqff#/JJ	.	.	.	.	.	.
!	!	!	!	!	!LO:DY:b:t=for.	!	!	!	!	!
8r	.	.	.	8.ff#t\L	f	.	.	.	.	.
!	!	!LO:DY:b:t=for&colon;	!	!	!	!	!	!	!	!
8c\	2	f	.	.	.	.	.	.	.	.
.	.	.	.	(32ee\LL	.	.	.	.	.	.
.	.	.	.	32ff#\JJJ)	.	.	.	.	.	.
=32	=32	=32	=32	=32	=32	=32	=32	=32	=32	=32
!LO:TX:t=P:problem=mixed beam	!	!	!	!	!	!	!	!	!	!
8B\L	6	.	1ryy	(16gg\LL	.	1ryy	.	.	1ryy	1ryy
.	.	.	.	16dd\	.	.	.	.	.	.
8c\	6	.	.	16ee\)	.	.	.	.	.	.
.	.	.	.	16a\JJ|	.	.	.	.	.	.
8d\	4	.	.	8d/L	.	.	.	.	.	.
8D/J	3	.	.	8aT/J	.	.	.	.	.	.
4GG/	.	.	.	8g/L	.	.	.	.	.	.
.	.	.	.	8d/J	.	.	.	.	.	.
!LO:TX:b:t=Osanna \nDa Capo.	!	!	!LO:TX:b:t=Osanna Da Capo.	!LO:TX:b:i:t=Osanna Da Capo.	!	!LO:TX:a:i:t=Osanna da Capo.	!LO:TX:b:i:t=Osanna \nDa Capo.	!	!LO:TX:b:i:t=Osanna Da Capo.	!LO:TX:b:i:t=Osanna Da Capo.
4r	.	.	.	4G;/	.	.	.	.	.	.
==	==	==	==	==	==	==	==	==	==	==
*-	*-	*-	*-	*-	*-	*-	*-	*-	*-	*-
!!!system-decoration: [(g1)][(g2)][(g3)]s7
!!!RDF**kern: > = above
!!!RDF**kern: | = vertical stroke
!!!ENC: Andrzej Gręziak
!!!END: 2022-03-29
!!!ENC: Marta Lawrence
!!!END: 2022-04-07
